X: 6
T:Dancla op.74
C:School of Mechanism, Daily exercises, 1-6
N:Transcribed by Becky Smith
L:1/8
Q:1/4=120
M:4/4
K:C
|: C/B,/A,/G,/ C/B,/A,/G,/ C/B,/A,/G,/ C/B,/A,/G,/ | D/B,/A,/G,/ D/B,/A,/G,/ D/B,/A,/G,/ D/B,/A,/G,/ | 
C/B,/A,/G,/ C/B,/A,/G,/ D/B,/A,/G,/ D/B,/A,/G,/ | C/B,/A,/G,/ C/B,/A,/G,/ D/B,/A,/G,/ D/B,/A,/G,/ | 
C/B,/A,/G,/ D/B,/A,/G,/ C/B,/A,/G,/ D/B,/A,/G,/ | C/B,/A,/G,/ D/B,/A,/G,/ C/B,/A,/G,/ D/B,/A,/G,/ :| C8 | 
|: C/G,/B,/G,/ C/G,/B,/G,/ C/G,/B,/G,/ C/G,/B,/G,/ | C/G,/B,/G,/ C/G,/B,/G,/ C/G,/B,/G,/ C/D/E/^F/ | 
G/D/^F/D/ G/D/F/D/ G/D/F/D/ G/D/F/D/ | G/D/^F/D/ G/D/F/D/ G/A/=F/G/ E/F/D/E/ | 
C/G,/B,/G,/ C/G,/B,/G,/ C/G,/B,/G,/ C/G,/B,/G,/ | C/G,/B,/G,/ C/G,/B,/G,/ C/G,/B,/G,/ C/G,/B,/G,/ :| C8 | 
|: C/D/B,/G,/ C/D/B,/G,/ C/D/B,/G,/ C/D/B,/G,/ | C/D/B,/G,/ C/D/B,/G,/ C/D/B,/G,/ C/D/E/^F/ | 
G/A/^F/D/ G/A/F/D/ G/A/F/D/ G/A/F/D/ | G/A/^F/D/ G/A/F/D/ G/A/=F/G/ E/F/D/E/ | 
C/D/B,/G,/ C/D/B,/G,/ C/D/B,/G,/ C/D/B,/G,/ | C/D/B,/G,/ C/D/B,/G,/ C/D/B,/G,/ C/D/B,/G,/ :| C8 | 
|: G,/B,/A,/C/ B,/D/C/A,/ G,/B,/A,/C/ B,/D/C/A,/ | G,/B,/A,/C/ B,/D/C/A,/ G,/A,/G,/A,/ B,/C/B,/C/ | 
D/^F/E/G/ F/A/G/E/ D/F/E/G/ F/A/G/E/ | D/^F/E/G/ F/A/G/E/ D/E/C/D/ B,/C/A,/B,/ | 
D/^F/E/G/ F/A/G/E/ D/F/E/G/ F/A/G/E/ | D/^F/E/G/ F/A/G/E/ D/E/C/D/ B,/C/A,/B,/ | 
G,/B,/A,/C/ B,/D/C/A,/ G,/B,/A,/C/ B,/D/C/A,/ | G,/B,/A,/C/ B,/D/C/A,/ G,/B,/A,/C/ B,/D/C/A,/ :| G,8 | 
|: C/A,/G,/D/ C/A,/G,/D/ C/A,/G,/D/ C/A,/G,/D/ | C/A,/G,/D/ C/A,/G,/D/ C/A,/G,/D/ C/D/E/^F/ | 
G/E/D/A/ G/E/D/A/ G/E/D/A/ G/E/D/A/ | G/E/D/A/ G/E/D/A/ G/E/D/^F/ D/B,/G,/D/ | 
C/A,/G,/D/ C/A,/G,/D/ C/A,/G,/D/ C/A,/G,/D/ | C/A,/G,/D/ C/A,/G,/D/ C/A,/G,/D/ C/A,/G,/D/ :| C8 | 
|: C/E/G/c/ e/g/c'/g/ e/g/e/c/ G/E/C/G,/ | C/E/G/c/ e/g/c'/g/ e/g/e/c/ G/E/C/G,/ | 
C/B,/A,/G,/ C/B,/A,/G,/ D/B,/A,/G,/ D/B,/A,/G,/ | C/B,/A,/G,/ C/B,/A,/G,/ D/B,/A,/G,/ D/B,/A,/G,/ | 
C/G,/B,/D/ C/G,/B,/D/ C/G,/B,/D/ C/G,/B,/D/ | C/G,/B,/D/ C/G,/B,/D/ C/G,/B,/D/ C/G,/B,/D/ :| C8 |

